X:548
T:The Banquet
M:3/4
L:1/8
Q:100
B:O'Neill's 548
N:"Moderate"
Z:Transcribed by Dave Wooldridge
K:G
(de/2f/2) \
| (g2d2c2) | B3 A G2 | (A2d2c2) | B3 A G2 \
| B2 c2 d2 | e3 f g2 | g2 f2 e2 | d4 d2  |
| (g2 d2 c2) | B3 A G2 | (A2 d2 c2) | B3 A G2 \
| B2 c2 d2 | e2 a2 g2 | e2 f2 d2 | g4 ||
g2 \
| (a2 b2 g2) | f3 e d2 | f2 (bagf) | e2 d2 B2 \
| G2 B2 e2 | d2 f2 g2 | a2 e2 g2 | f4 z g |
| a3 b g2 | f2 e2 d2 | g2 (bagf) | e2 d2 B2 \
| G2 B2 e2 | d2 c2 B2 | A2 G2 F2 | G4 ||


